src/resources/assets/flow.svg

<svg xmlns="http://www.w3.org/2000/svg" width="16" height="16"><path d="M 15 5.5 C 15 6.878906 13.878906 8 12.5 8 C 11.289062 8 10.28125 7.140625 10.050781 6 L 9.730469 6 C 9.253906 6 8.84375 6.335938 8.75 6.804688 L 8.230469 9.390625 C 8.042969 10.328125 7.222656 11 6.269531 11 L 5.949219 11 C 5.71875 12.140625 4.710938 13 3.5 13 C 2.121094 13 1 11.878906 1 10.5 C 1 9.121094 2.121094 8 3.5 8 C 4.710938 8 5.71875 8.859375 5.949219 10 L 6.269531 10 C 6.746094 10 7.15625 9.664062 7.25 9.195312 L 7.769531 6.609375 C 7.957031 5.671875 8.777344 5 9.730469 5 L 10.050781 5 C 10.28125 3.859375 11.289062 3 12.5 3 C 13.878906 3 15 4.121094 15 5.5 Z M 14 5.5 C 14 4.671875 13.328125 4 12.5 4 C 11.671875 4 11 4.671875 11 5.5 C 11 6.328125 11.671875 7 12.5 7 C 13.328125 7 14 6.328125 14 5.5 Z M 3.5 12 C 4.328125 12 5 11.328125 5 10.5 C 5 9.671875 4.328125 9 3.5 9 C 2.671875 9 2 9.671875 2 10.5 C 2 11.328125 2.671875 12 3.5 12 Z M 3.5 12" fill="#ddd"/></svg>

<svg xmlns="http://www.w3.org/2000/svg" width="16" height="16"><path d="M15 5.5C15 6.879 13.879 8 12.5 8c-1.21 0-2.219-.86-2.45-2h-.32a1 1 0 00-.98.805L8.23 9.39A2 2 0 016.27 11h-.32c-.231 1.14-1.24 2-2.45 2A2.502 2.502 0 011 10.5C1 9.121 2.121 8 3.5 8c1.21 0 2.219.86 2.45 2h.32a1 1 0 00.98-.805l.52-2.586A2 2 0 019.73 5h.32c.231-1.14 1.24-2 2.45-2C13.879 3 15 4.121 15 5.5zm-1 0a1.5 1.5 0 10-3 0 1.5 1.5 0 003 0zM3.5 12a1.5 1.5 0 100-3 1.5 1.5 0 000 3zm0 0" fill="#ddd"/></svg>
